images/3233226.svg

<?xml version="1.0" encoding="UTF-8"?>
<svg xmlns="http://www.w3.org/2000/svg" xmlns:xlink="http://www.w3.org/1999/xlink" width="300pt" height="300pt" viewBox="0 0 300 300" version="1.1">
<defs>
<g>
<symbol overflow="visible" id="glyph0-0">
<path style="stroke:none;" d="M 0.453125 1.59375 L 0.453125 -6.34375 L 4.953125 -6.34375 L 4.953125 1.59375 Z M 0.953125 1.09375 L 4.453125 1.09375 L 4.453125 -5.84375 L 0.953125 -5.84375 Z M 0.953125 1.09375 "/>
</symbol>
<symbol overflow="visible" id="glyph0-1">
<path style="stroke:none;" d="M 0.890625 -6.5625 L 2.078125 -6.5625 L 4.984375 -1.078125 L 4.984375 -6.5625 L 5.84375 -6.5625 L 5.84375 0 L 4.65625 0 L 1.75 -5.484375 L 1.75 0 L 0.890625 0 Z M 0.890625 -6.5625 "/>
</symbol>
<symbol overflow="visible" id="glyph0-2">
<path style="stroke:none;" d="M 0.890625 -6.5625 L 1.765625 -6.5625 L 1.765625 -3.875 L 5 -3.875 L 5 -6.5625 L 5.890625 -6.5625 L 5.890625 0 L 5 0 L 5 -3.125 L 1.765625 -3.125 L 1.765625 0 L 0.890625 0 Z M 0.890625 -6.5625 "/>
</symbol>
<symbol overflow="visible" id="glyph0-3">
<path style="stroke:none;" d="M 3.546875 -5.953125 C 2.898438 -5.953125 2.382812 -5.710938 2 -5.234375 C 1.625 -4.753906 1.4375 -4.101562 1.4375 -3.28125 C 1.4375 -2.445312 1.625 -1.789062 2 -1.3125 C 2.382812 -0.832031 2.898438 -0.59375 3.546875 -0.59375 C 4.191406 -0.59375 4.703125 -0.832031 5.078125 -1.3125 C 5.453125 -1.789062 5.640625 -2.445312 5.640625 -3.28125 C 5.640625 -4.101562 5.453125 -4.753906 5.078125 -5.234375 C 4.703125 -5.710938 4.191406 -5.953125 3.546875 -5.953125 Z M 3.546875 -6.6875 C 4.460938 -6.6875 5.195312 -6.375 5.75 -5.75 C 6.300781 -5.132812 6.578125 -4.3125 6.578125 -3.28125 C 6.578125 -2.238281 6.300781 -1.410156 5.75 -0.796875 C 5.195312 -0.179688 4.460938 0.125 3.546875 0.125 C 2.617188 0.125 1.878906 -0.179688 1.328125 -0.796875 C 0.773438 -1.410156 0.5 -2.238281 0.5 -3.28125 C 0.5 -4.3125 0.773438 -5.132812 1.328125 -5.75 C 1.878906 -6.375 2.617188 -6.6875 3.546875 -6.6875 Z M 3.546875 -6.6875 "/>
</symbol>
</g>
</defs>
<g id="surface48637">
<rect x="0" y="0" width="300" height="300" style="fill:rgb(100%,100%,100%);fill-opacity:1;stroke:none;"/>
<path style="fill:none;stroke-width:1.2;stroke-linecap:butt;stroke-linejoin:miter;stroke:rgb(0%,0%,0%);stroke-opacity:1;stroke-miterlimit:10;" d="M 264.75 148.738281 L 258.789062 156.796875 "/>
<path style="fill:none;stroke-width:1.2;stroke-linecap:butt;stroke-linejoin:miter;stroke:rgb(0%,0%,100%);stroke-opacity:1;stroke-miterlimit:10;" d="M 258.789062 156.796875 L 252.832031 164.851562 "/>
<path style="fill:none;stroke-width:1.2;stroke-linecap:butt;stroke-linejoin:miter;stroke:rgb(0%,0%,100%);stroke-opacity:1;stroke-miterlimit:10;" d="M 252.832031 164.851562 L 256.828125 174.042969 "/>
<path style="fill:none;stroke-width:1.2;stroke-linecap:butt;stroke-linejoin:miter;stroke:rgb(0%,0%,0%);stroke-opacity:1;stroke-miterlimit:10;" d="M 256.828125 174.042969 L 260.828125 183.234375 "/>
<path style="fill:none;stroke-width:1.2;stroke-linecap:butt;stroke-linejoin:miter;stroke:rgb(0%,0%,100%);stroke-opacity:1;stroke-miterlimit:10;" d="M 252.832031 164.851562 L 242.871094 163.71875 "/>
<path style="fill:none;stroke-width:1.2;stroke-linecap:butt;stroke-linejoin:miter;stroke:rgb(0%,0%,0%);stroke-opacity:1;stroke-miterlimit:10;" d="M 242.871094 163.71875 L 232.914062 162.585938 "/>
<path style=" stroke:none;fill-rule:nonzero;fill:rgb(100%,100%,100%);fill-opacity:1;" d="M 249.832031 159.351562 L 256.832031 159.351562 L 256.832031 170.351562 L 249.832031 170.351562 Z M 249.832031 159.351562 "/>
<g style="fill:rgb(0%,0%,100%);fill-opacity:1;">
  <use xlink:href="#glyph0-1" x="249.832031" y="168.014648"/>
</g>
<path style="fill:none;stroke-width:1.2;stroke-linecap:butt;stroke-linejoin:miter;stroke:rgb(0%,0%,0%);stroke-opacity:1;stroke-miterlimit:10;" d="M 232.914062 162.585938 L 220.996094 178.703125 "/>
<path style="fill:none;stroke-width:1.2;stroke-linecap:butt;stroke-linejoin:miter;stroke:rgb(0%,0%,0%);stroke-opacity:1;stroke-miterlimit:10;" d="M 220.996094 178.703125 L 228.992188 197.082031 "/>
<path style="fill:none;stroke-width:1.2;stroke-linecap:butt;stroke-linejoin:miter;stroke:rgb(0%,0%,0%);stroke-opacity:1;stroke-miterlimit:10;" d="M 217.46875 182.421875 L 223.867188 197.125 "/>
<path style="fill:none;stroke-width:1.2;stroke-linecap:butt;stroke-linejoin:miter;stroke:rgb(0%,0%,0%);stroke-opacity:1;stroke-miterlimit:10;" d="M 201.082031 176.4375 L 220.996094 178.703125 "/>
<path style="fill:none;stroke-width:1.2;stroke-linecap:butt;stroke-linejoin:miter;stroke:rgb(0%,0%,0%);stroke-opacity:1;stroke-miterlimit:10;" d="M 228.992188 197.082031 L 217.074219 213.195312 "/>
<path style="fill:none;stroke-width:1.2;stroke-linecap:butt;stroke-linejoin:miter;stroke:rgb(0%,0%,0%);stroke-opacity:1;stroke-miterlimit:10;" d="M 217.074219 213.195312 L 197.15625 210.933594 "/>
<path style="fill:none;stroke-width:1.2;stroke-linecap:butt;stroke-linejoin:miter;stroke:rgb(0%,0%,0%);stroke-opacity:1;stroke-miterlimit:10;" d="M 215.613281 208.285156 L 199.679688 206.472656 "/>
<path style="fill:none;stroke-width:1.2;stroke-linecap:butt;stroke-linejoin:miter;stroke:rgb(0%,0%,0%);stroke-opacity:1;stroke-miterlimit:10;" d="M 197.15625 210.933594 L 189.160156 192.550781 "/>
<path style="fill:none;stroke-width:1.2;stroke-linecap:butt;stroke-linejoin:miter;stroke:rgb(0%,0%,0%);stroke-opacity:1;stroke-miterlimit:10;" d="M 189.160156 192.550781 L 201.082031 176.4375 "/>
<path style="fill:none;stroke-width:1.2;stroke-linecap:butt;stroke-linejoin:miter;stroke:rgb(0%,0%,0%);stroke-opacity:1;stroke-miterlimit:10;" d="M 194.144531 193.746094 L 203.679688 180.851562 "/>
<path style="fill:none;stroke-width:1.2;stroke-linecap:butt;stroke-linejoin:miter;stroke:rgb(0%,0%,0%);stroke-opacity:1;stroke-miterlimit:10;" d="M 201.082031 176.4375 L 193.085938 158.058594 "/>
<path style="fill:none;stroke-width:1.2;stroke-linecap:butt;stroke-linejoin:miter;stroke:rgb(0%,0%,0%);stroke-opacity:1;stroke-miterlimit:10;" d="M 193.085938 158.058594 L 199.042969 150 "/>
<path style="fill:none;stroke-width:1.2;stroke-linecap:butt;stroke-linejoin:miter;stroke:rgb(0%,0%,100%);stroke-opacity:1;stroke-miterlimit:10;" d="M 199.042969 150 L 205.003906 141.941406 "/>
<path style="fill:none;stroke-width:1.2;stroke-linecap:butt;stroke-linejoin:miter;stroke:rgb(0%,0%,0%);stroke-opacity:1;stroke-miterlimit:10;" d="M 190.484375 153.640625 L 195.253906 147.195312 "/>
<path style="fill:none;stroke-width:1.2;stroke-linecap:butt;stroke-linejoin:miter;stroke:rgb(0%,0%,100%);stroke-opacity:1;stroke-miterlimit:10;" d="M 195.253906 147.195312 L 200.019531 140.75 "/>
<path style="fill:none;stroke-width:1.2;stroke-linecap:butt;stroke-linejoin:miter;stroke:rgb(0%,0%,100%);stroke-opacity:1;stroke-miterlimit:10;" d="M 173.167969 155.792969 L 183.125 156.925781 "/>
<path style="fill:none;stroke-width:1.2;stroke-linecap:butt;stroke-linejoin:miter;stroke:rgb(0%,0%,0%);stroke-opacity:1;stroke-miterlimit:10;" d="M 183.125 156.925781 L 193.085938 158.058594 "/>
<path style="fill:none;stroke-width:1.2;stroke-linecap:butt;stroke-linejoin:miter;stroke:rgb(0%,0%,100%);stroke-opacity:1;stroke-miterlimit:10;" d="M 205.003906 141.941406 L 201.003906 132.753906 "/>
<path style="fill:none;stroke-width:1.2;stroke-linecap:butt;stroke-linejoin:miter;stroke:rgb(0%,0%,0%);stroke-opacity:1;stroke-miterlimit:10;" d="M 201.003906 132.753906 L 197.007812 123.5625 "/>
<path style=" stroke:none;fill-rule:nonzero;fill:rgb(100%,100%,100%);fill-opacity:1;" d="M 202.003906 136.441406 L 209.003906 136.441406 L 209.003906 147.441406 L 202.003906 147.441406 Z M 202.003906 136.441406 "/>
<g style="fill:rgb(0%,0%,100%);fill-opacity:1;">
  <use xlink:href="#glyph0-1" x="202.003906" y="145.104492"/>
</g>
<path style="fill:none;stroke-width:1.2;stroke-linecap:butt;stroke-linejoin:miter;stroke:rgb(0%,0%,0%);stroke-opacity:1;stroke-miterlimit:10;" d="M 197.007812 123.5625 L 208.925781 107.449219 "/>
<path style="fill:none;stroke-width:1.2;stroke-linecap:butt;stroke-linejoin:miter;stroke:rgb(0%,0%,0%);stroke-opacity:1;stroke-miterlimit:10;" d="M 194.40625 119.148438 L 203.941406 106.253906 "/>
<path style="fill:none;stroke-width:1.2;stroke-linecap:butt;stroke-linejoin:miter;stroke:rgb(0%,0%,0%);stroke-opacity:1;stroke-miterlimit:10;" d="M 177.09375 121.296875 L 197.007812 123.5625 "/>
<path style="fill:none;stroke-width:1.2;stroke-linecap:butt;stroke-linejoin:miter;stroke:rgb(0%,0%,0%);stroke-opacity:1;stroke-miterlimit:10;" d="M 208.925781 107.449219 L 200.929688 89.066406 "/>
<path style="fill:none;stroke-width:1.2;stroke-linecap:butt;stroke-linejoin:miter;stroke:rgb(0%,0%,0%);stroke-opacity:1;stroke-miterlimit:10;" d="M 200.929688 89.066406 L 181.015625 86.804688 "/>
<path style="fill:none;stroke-width:1.2;stroke-linecap:butt;stroke-linejoin:miter;stroke:rgb(0%,0%,0%);stroke-opacity:1;stroke-miterlimit:10;" d="M 198.40625 93.527344 L 182.472656 91.714844 "/>
<path style="fill:none;stroke-width:1.2;stroke-linecap:butt;stroke-linejoin:miter;stroke:rgb(0%,0%,0%);stroke-opacity:1;stroke-miterlimit:10;" d="M 181.015625 86.804688 L 169.097656 102.917969 "/>
<path style="fill:none;stroke-width:1.2;stroke-linecap:butt;stroke-linejoin:miter;stroke:rgb(0%,0%,0%);stroke-opacity:1;stroke-miterlimit:10;" d="M 169.097656 102.917969 L 177.09375 121.296875 "/>
<path style="fill:none;stroke-width:1.2;stroke-linecap:butt;stroke-linejoin:miter;stroke:rgb(0%,0%,0%);stroke-opacity:1;stroke-miterlimit:10;" d="M 174.21875 102.875 L 180.617188 117.578125 "/>
<path style="fill:none;stroke-width:1.2;stroke-linecap:butt;stroke-linejoin:miter;stroke:rgb(0%,0%,0%);stroke-opacity:1;stroke-miterlimit:10;" d="M 177.09375 121.296875 L 165.171875 137.414062 "/>
<path style="fill:none;stroke-width:1.2;stroke-linecap:butt;stroke-linejoin:miter;stroke:rgb(0%,0%,0%);stroke-opacity:1;stroke-miterlimit:10;" d="M 165.171875 137.414062 L 169.171875 146.601562 "/>
<path style="fill:none;stroke-width:1.2;stroke-linecap:butt;stroke-linejoin:miter;stroke:rgb(0%,0%,100%);stroke-opacity:1;stroke-miterlimit:10;" d="M 169.171875 146.601562 L 173.167969 155.792969 "/>
<path style="fill:none;stroke-width:1.2;stroke-linecap:butt;stroke-linejoin:miter;stroke:rgb(0%,0%,0%);stroke-opacity:1;stroke-miterlimit:10;" d="M 170.296875 137.367188 L 173.496094 144.722656 "/>
<path style="fill:none;stroke-width:1.2;stroke-linecap:butt;stroke-linejoin:miter;stroke:rgb(0%,0%,100%);stroke-opacity:1;stroke-miterlimit:10;" d="M 173.496094 144.722656 L 176.695312 152.074219 "/>
<path style="fill:none;stroke-width:1.2;stroke-linecap:butt;stroke-linejoin:miter;stroke:rgb(0%,0%,0%);stroke-opacity:1;stroke-miterlimit:10;" d="M 165.171875 137.414062 L 155.214844 136.28125 "/>
<path style="fill:none;stroke-width:1.2;stroke-linecap:butt;stroke-linejoin:miter;stroke:rgb(0%,0%,100%);stroke-opacity:1;stroke-miterlimit:10;" d="M 155.214844 136.28125 L 145.257812 135.148438 "/>
<path style=" stroke:none;fill-rule:nonzero;fill:rgb(100%,100%,100%);fill-opacity:1;" d="M 170.167969 150.292969 L 177.167969 150.292969 L 177.167969 161.292969 L 170.167969 161.292969 Z M 170.167969 150.292969 "/>
<g style="fill:rgb(0%,0%,100%);fill-opacity:1;">
  <use xlink:href="#glyph0-1" x="170.167969" y="158.956055"/>
</g>
<path style="fill:none;stroke-width:1.2;stroke-linecap:butt;stroke-linejoin:miter;stroke:rgb(0%,0%,100%);stroke-opacity:1;stroke-miterlimit:10;" d="M 145.257812 135.148438 L 139.296875 143.203125 "/>
<path style="fill:none;stroke-width:1.2;stroke-linecap:butt;stroke-linejoin:miter;stroke:rgb(0%,0%,0%);stroke-opacity:1;stroke-miterlimit:10;" d="M 139.296875 143.203125 L 133.335938 151.261719 "/>
<path style=" stroke:none;fill-rule:nonzero;fill:rgb(100%,100%,100%);fill-opacity:1;" d="M 138.257812 129.648438 L 152.257812 129.648438 L 152.257812 140.648438 L 138.257812 140.648438 Z M 138.257812 129.648438 "/>
<g style="fill:rgb(0%,0%,100%);fill-opacity:1;">
  <use xlink:href="#glyph0-1" x="138.257812" y="138.311523"/>
  <use xlink:href="#glyph0-2" x="145.235352" y="138.311523"/>
</g>
<path style="fill:none;stroke-width:1.2;stroke-linecap:butt;stroke-linejoin:miter;stroke:rgb(0%,0%,0%);stroke-opacity:1;stroke-miterlimit:10;" d="M 133.335938 151.261719 L 113.421875 148.996094 "/>
<path style="fill:none;stroke-width:1.2;stroke-linecap:butt;stroke-linejoin:miter;stroke:rgb(0%,0%,0%);stroke-opacity:1;stroke-miterlimit:10;" d="M 113.421875 148.996094 L 101.503906 165.113281 "/>
<path style="fill:none;stroke-width:1.2;stroke-linecap:butt;stroke-linejoin:miter;stroke:rgb(0%,0%,0%);stroke-opacity:1;stroke-miterlimit:10;" d="M 101.503906 165.113281 L 107.535156 184.226562 "/>
<path style="fill:none;stroke-width:1.2;stroke-linecap:butt;stroke-linejoin:miter;stroke:rgb(0%,0%,0%);stroke-opacity:1;stroke-miterlimit:10;" d="M 97.609375 168.441406 L 102.433594 183.734375 "/>
<path style="fill:none;stroke-width:1.2;stroke-linecap:butt;stroke-linejoin:miter;stroke:rgb(0%,0%,0%);stroke-opacity:1;stroke-miterlimit:10;" d="M 81.460938 164.941406 L 101.503906 165.113281 "/>
<path style="fill:none;stroke-width:1.2;stroke-linecap:butt;stroke-linejoin:miter;stroke:rgb(0%,0%,0%);stroke-opacity:1;stroke-miterlimit:10;" d="M 107.535156 184.226562 L 99.375 190.046875 "/>
<path style="fill:none;stroke-width:1.2;stroke-linecap:butt;stroke-linejoin:miter;stroke:rgb(0%,0%,100%);stroke-opacity:1;stroke-miterlimit:10;" d="M 99.375 190.046875 L 91.21875 195.871094 "/>
<path style="fill:none;stroke-width:1.2;stroke-linecap:butt;stroke-linejoin:miter;stroke:rgb(0%,0%,100%);stroke-opacity:1;stroke-miterlimit:10;" d="M 91.21875 195.871094 L 83.160156 189.910156 "/>
<path style="fill:none;stroke-width:1.2;stroke-linecap:butt;stroke-linejoin:miter;stroke:rgb(0%,0%,0%);stroke-opacity:1;stroke-miterlimit:10;" d="M 83.160156 189.910156 L 75.101562 183.949219 "/>
<path style=" stroke:none;fill-rule:nonzero;fill:rgb(100%,100%,100%);fill-opacity:1;" d="M 84.21875 190.371094 L 98.21875 190.371094 L 98.21875 201.371094 L 84.21875 201.371094 Z M 84.21875 190.371094 "/>
<g style="fill:rgb(0%,0%,100%);fill-opacity:1;">
  <use xlink:href="#glyph0-1" x="84.21875" y="199.03418"/>
  <use xlink:href="#glyph0-2" x="91.196289" y="199.03418"/>
</g>
<path style="fill:none;stroke-width:1.2;stroke-linecap:butt;stroke-linejoin:miter;stroke:rgb(0%,0%,0%);stroke-opacity:1;stroke-miterlimit:10;" d="M 75.101562 183.949219 L 81.460938 164.941406 "/>
<path style="fill:none;stroke-width:1.2;stroke-linecap:butt;stroke-linejoin:miter;stroke:rgb(0%,0%,0%);stroke-opacity:1;stroke-miterlimit:10;" d="M 71.265625 180.554688 L 76.351562 165.347656 "/>
<path style="fill:none;stroke-width:1.2;stroke-linecap:butt;stroke-linejoin:miter;stroke:rgb(0%,0%,0%);stroke-opacity:1;stroke-miterlimit:10;" d="M 55.460938 187.949219 L 75.101562 183.949219 "/>
<path style="fill:none;stroke-width:1.2;stroke-linecap:butt;stroke-linejoin:miter;stroke:rgb(0%,0%,0%);stroke-opacity:1;stroke-miterlimit:10;" d="M 81.460938 164.941406 L 68.175781 149.929688 "/>
<path style="fill:none;stroke-width:1.2;stroke-linecap:butt;stroke-linejoin:miter;stroke:rgb(0%,0%,0%);stroke-opacity:1;stroke-miterlimit:10;" d="M 68.175781 149.929688 L 48.535156 153.929688 "/>
<path style="fill:none;stroke-width:1.2;stroke-linecap:butt;stroke-linejoin:miter;stroke:rgb(0%,0%,0%);stroke-opacity:1;stroke-miterlimit:10;" d="M 67.152344 154.953125 L 51.441406 158.152344 "/>
<path style="fill:none;stroke-width:1.2;stroke-linecap:butt;stroke-linejoin:miter;stroke:rgb(0%,0%,0%);stroke-opacity:1;stroke-miterlimit:10;" d="M 48.535156 153.929688 L 42.179688 172.941406 "/>
<path style="fill:none;stroke-width:1.2;stroke-linecap:butt;stroke-linejoin:miter;stroke:rgb(0%,0%,0%);stroke-opacity:1;stroke-miterlimit:10;" d="M 48.535156 153.929688 L 41.890625 146.425781 "/>
<path style="fill:none;stroke-width:1.2;stroke-linecap:butt;stroke-linejoin:miter;stroke:rgb(100%,0%,0%);stroke-opacity:1;stroke-miterlimit:10;" d="M 41.890625 146.425781 L 35.25 138.921875 "/>
<path style="fill:none;stroke-width:1.2;stroke-linecap:butt;stroke-linejoin:miter;stroke:rgb(0%,0%,0%);stroke-opacity:1;stroke-miterlimit:10;" d="M 42.179688 172.941406 L 55.460938 187.949219 "/>
<path style="fill:none;stroke-width:1.2;stroke-linecap:butt;stroke-linejoin:miter;stroke:rgb(0%,0%,0%);stroke-opacity:1;stroke-miterlimit:10;" d="M 47.039062 171.316406 L 57.664062 183.324219 "/>
<path style="fill:none;stroke-width:1.2;stroke-linecap:butt;stroke-linejoin:miter;stroke:rgb(100%,0%,0%);stroke-opacity:1;stroke-miterlimit:10;" d="M 35.25 138.921875 L 38.429688 129.417969 "/>
<path style="fill:none;stroke-width:1.2;stroke-linecap:butt;stroke-linejoin:miter;stroke:rgb(0%,0%,0%);stroke-opacity:1;stroke-miterlimit:10;" d="M 38.429688 129.417969 L 41.605469 119.914062 "/>
<path style=" stroke:none;fill-rule:nonzero;fill:rgb(100%,100%,100%);fill-opacity:1;" d="M 31.25 133.421875 L 39.25 133.421875 L 39.25 144.421875 L 31.25 144.421875 Z M 31.25 133.421875 "/>
<g style="fill:rgb(100%,0%,0%);fill-opacity:1;">
  <use xlink:href="#glyph0-3" x="31.25" y="142.084961"/>
</g>
</g>
</svg>

<svg xmlns="http://www.w3.org/2000/svg" xmlns:xlink="http://www.w3.org/1999/xlink" width="300pt" height="300pt" viewBox="0 0 300 300"><defs><symbol overflow="visible"><path d="M.453 1.594v-7.938h4.5v7.938zm.5-.5h3.5v-6.938h-3.5zm0 0"/></symbol><symbol overflow="visible" id="a"><path d="M.89-6.563H2.08l2.906 5.485v-5.484h.86V0H4.656L1.75-5.484V0H.89zm0 0"/></symbol><symbol overflow="visible" id="b"><path d="M.89-6.563h.876v2.688H5v-2.688h.89V0H5v-3.125H1.766V0H.89zm0 0"/></symbol><symbol overflow="visible" id="c"><path d="M3.547-5.953c-.65 0-1.164.242-1.547.72-.375.48-.563 1.13-.563 1.952 0 .835.188 1.49.563 1.967.383.48.898.72 1.547.72.644 0 1.156-.24 1.53-.72.376-.476.564-1.132.564-1.968 0-.822-.187-1.474-.562-1.954-.375-.477-.887-.72-1.53-.72zm0-.734c.914 0 1.648.312 2.203.937.55.617.828 1.438.828 2.47 0 1.042-.277 1.87-.828 2.483-.555.617-1.29.922-2.203.922-.93 0-1.668-.305-2.22-.922C.774-1.41.5-2.237.5-3.28c0-1.033.273-1.853.828-2.47.55-.625 1.29-.938 2.22-.938zm0 0"/></symbol></defs><g><path fill="#fff" d="M0 0h300v300H0z"/><path d="M264.75 148.738l-5.96 8.06" stroke-width="1.2" stroke="#000" stroke-miterlimit="10" fill="none"/><path d="M258.79 156.797l-5.958 8.055M252.832 164.852l3.996 9.19" stroke-width="1.2" stroke="#00f" stroke-miterlimit="10" fill="none"/><path d="M256.828 174.043l4 9.19" stroke-width="1.2" stroke="#000" stroke-miterlimit="10" fill="none"/><path d="M252.832 164.852l-9.96-1.133" stroke-width="1.2" stroke="#00f" stroke-miterlimit="10" fill="none"/><path d="M242.87 163.72l-9.956-1.134" stroke-width="1.2" stroke="#000" stroke-miterlimit="10" fill="none"/><path d="M249.832 159.352h7v11h-7zm0 0" fill="#fff"/><use xlink:href="#a" x="249.832" y="168.015" fill="#00f"/><path d="M232.914 162.586l-11.918 16.117M220.996 178.703l7.996 18.38M217.47 182.422l6.397 14.703M201.082 176.438l19.914 2.265M228.992 197.082l-11.918 16.113M217.074 213.195l-19.918-2.26M215.613 208.285l-15.933-1.812M197.156 210.934l-7.996-18.383M189.16 192.55l11.922-16.113M194.145 193.746l9.535-12.894M201.082 176.438l-7.996-18.38M193.086 158.06l5.957-8.06" stroke-width="1.2" stroke="#000" stroke-miterlimit="10" fill="none"/><path d="M199.043 150l5.96-8.06" stroke-width="1.2" stroke="#00f" stroke-miterlimit="10" fill="none"/><path d="M190.484 153.64l4.77-6.445" stroke-width="1.2" stroke="#000" stroke-miterlimit="10" fill="none"/><path d="M195.254 147.195l4.766-6.445M173.168 155.793l9.957 1.133" stroke-width="1.2" stroke="#00f" stroke-miterlimit="10" fill="none"/><path d="M183.125 156.926l9.96 1.133" stroke-width="1.2" stroke="#000" stroke-miterlimit="10" fill="none"/><path d="M205.004 141.94l-4-9.186" stroke-width="1.2" stroke="#00f" stroke-miterlimit="10" fill="none"/><path d="M201.004 132.754l-3.996-9.19" stroke-width="1.2" stroke="#000" stroke-miterlimit="10" fill="none"/><path d="M202.004 136.44h7v11h-7zm0 0" fill="#fff"/><use xlink:href="#a" x="202.004" y="145.104" fill="#00f"/><path d="M197.008 123.563l11.918-16.114M194.406 119.148l9.535-12.894M177.094 121.297l19.914 2.266M208.926 107.45l-7.996-18.384M200.93 89.066l-19.914-2.26M198.406 93.527l-15.933-1.812M181.016 86.805l-11.918 16.113M169.098 102.918l7.996 18.38M174.22 102.875l6.397 14.703M177.094 121.297l-11.922 16.117M165.172 137.414l4 9.188" stroke-width="1.2" stroke="#000" stroke-miterlimit="10" fill="none"/><path d="M169.172 146.602l3.996 9.19" stroke-width="1.2" stroke="#00f" stroke-miterlimit="10" fill="none"/><path d="M170.297 137.367l3.2 7.356" stroke-width="1.2" stroke="#000" stroke-miterlimit="10" fill="none"/><path d="M173.496 144.723l3.2 7.35" stroke-width="1.2" stroke="#00f" stroke-miterlimit="10" fill="none"/><path d="M165.172 137.414l-9.957-1.133" stroke-width="1.2" stroke="#000" stroke-miterlimit="10" fill="none"/><path d="M155.215 136.28l-9.957-1.132" stroke-width="1.2" stroke="#00f" stroke-miterlimit="10" fill="none"/><path d="M170.168 150.293h7v11h-7zm0 0" fill="#fff"/><use xlink:href="#a" x="170.168" y="158.956" fill="#00f"/><path d="M145.258 135.148l-5.96 8.055" stroke-width="1.2" stroke="#00f" stroke-miterlimit="10" fill="none"/><path d="M139.297 143.203l-5.96 8.06" stroke-width="1.2" stroke="#000" stroke-miterlimit="10" fill="none"/><path d="M138.258 129.648h14v11h-14zm0 0" fill="#fff"/><g fill="#00f"><use xlink:href="#a" x="138.258" y="138.312"/><use xlink:href="#b" x="145.235" y="138.312"/></g><path d="M133.336 151.262l-19.914-2.266M113.422 148.996l-11.918 16.117M101.504 165.113l6.03 19.114M97.61 168.44l4.824 15.294M81.46 164.94l20.044.173M107.535 184.227l-8.16 5.82" stroke-width="1.2" stroke="#000" stroke-miterlimit="10" fill="none"/><path d="M99.375 190.047l-8.156 5.824M91.22 195.87l-8.06-5.96" stroke-width="1.2" stroke="#00f" stroke-miterlimit="10" fill="none"/><path d="M83.16 189.91l-8.058-5.96" stroke-width="1.2" stroke="#000" stroke-miterlimit="10" fill="none"/><path d="M84.22 190.37h14v11h-14zm0 0" fill="#fff"/><g fill="#00f"><use xlink:href="#a" x="84.219" y="199.034"/><use xlink:href="#b" x="91.196" y="199.034"/></g><path d="M75.102 183.95l6.36-19.01M71.266 180.555l5.086-15.207M55.46 187.95l19.642-4M81.46 164.94l-13.284-15.01M68.176 149.93l-19.64 4M67.152 154.953l-15.71 3.2M48.535 153.93l-6.355 19.01M48.535 153.93l-6.644-7.504" stroke-width="1.2" stroke="#000" stroke-miterlimit="10" fill="none"/><path d="M41.89 146.426l-6.64-7.504" stroke-width="1.2" stroke="#f00" stroke-miterlimit="10" fill="none"/><path d="M42.18 172.94l13.28 15.01M47.04 171.316l10.624 12.008" stroke-width="1.2" stroke="#000" stroke-miterlimit="10" fill="none"/><path d="M35.25 138.922l3.18-9.504" stroke-width="1.2" stroke="#f00" stroke-miterlimit="10" fill="none"/><path d="M38.43 129.418l3.175-9.504" stroke-width="1.2" stroke="#000" stroke-miterlimit="10" fill="none"/><path d="M31.25 133.422h8v11h-8zm0 0" fill="#fff"/><use xlink:href="#c" x="31.25" y="142.085" fill="#f00"/></g></svg>
